art/logos/iqueplayer.svg

<?xml version="1.0" encoding="UTF-8" standalone="no"?>
<!-- Created by ERK -->

<svg
   version="1.1"
   viewBox="0 0 900 400"
   id="svg5"
   sodipodi:docname="iqueplayer.svg"
   width="900"
   height="400"
   inkscape:version="1.4 (86a8ad7, 2024-10-11)"
   xmlns:inkscape="http://www.inkscape.org/namespaces/inkscape"
   xmlns:sodipodi="http://sodipodi.sourceforge.net/DTD/sodipodi-0.dtd"
   xmlns="http://www.w3.org/2000/svg"
   xmlns:svg="http://www.w3.org/2000/svg">
  <defs
     id="defs5" />
  <sodipodi:namedview
     id="namedview5"
     pagecolor="#ffffff"
     bordercolor="#000000"
     borderopacity="0.25"
     inkscape:showpageshadow="2"
     inkscape:pageopacity="0.0"
     inkscape:pagecheckerboard="true"
     inkscape:deskcolor="#d1d1d1"
     inkscape:zoom="2.4049479"
     inkscape:cx="447.41094"
     inkscape:cy="188.15376"
     inkscape:window-width="3840"
     inkscape:window-height="2066"
     inkscape:window-x="-11"
     inkscape:window-y="-11"
     inkscape:window-maximized="1"
     inkscape:current-layer="svg5" />
  <g
     id="g5"
     inkscape:label="Logo"
     transform="translate(66.055001,31.49)">
    <path
       d="m 71.25,245.41 c 4.96,2.8 10.62,2.34 16.16,2.95 a 0.66,0.66 0 0 1 0.59,0.66 v 15.46 a 0.67,0.66 0 0 1 -0.67,0.66 L 0.84,265.3 A 0.34,0.33 -90 0 1 0.51,264.96 L 0.5,248.8 a 0.53,0.53 0 0 1 0.49,-0.53 c 11.55,-0.81 19.83,-5.03 19.96,-17.83 q 0.16,-15.66 0.02,-71.19 C 20.94,146.55 12.59,137.49 0.95,132.78 A 0.74,0.72 11.7 0 1 0.5,132.11 v -11.68 a 0.76,0.75 -9.9 0 1 0.51,-0.71 l 55.5,-19.42 a 0.79,0.77 -38.6 0 1 0.68,0.07 l 6.3,3.86 a 1.07,1.06 -74.4 0 1 0.51,0.91 q -0.01,62.53 0.01,125.05 c 0.01,5.21 1.94,12.23 7.24,15.22 z"
       id="path4"
       inkscape:label="i"
       style="fill:#929497;fill-opacity:1" />
    <ellipse
       cx="0"
       cy="0"
       transform="rotate(0.1,-21190.362,23544.151)"
       rx="31.200001"
       ry="29.790001"
       id="ellipse1"
       inkscape:label="dot"
       style="fill:#929497;fill-opacity:1" />
    <path
       d="m 219.06,0 h 14 q 4.76,0.38 9.49,0.73 C 303.3,5.25 353.52,42.56 368.82,102.8 a 1.27,1.26 -7 0 0 1.23,0.95 h 71.17 a 0.51,0.51 0 0 1 0.51,0.51 q 0,52.34 -0.05,104.67 -0.01,11.78 2.62,20.56 c 6.46,21.64 31.45,18.67 46.75,10.52 q 9.96,-5.31 17.95,-12.1 c 3.02,-2.57 3.21,-6.21 3.22,-9.91 q 0.11,-30.26 -0.02,-60.52 -0.06,-13.85 -1.71,-18.91 -4.71,-14.47 -22.2,-17.15 a 0.94,0.94 0 0 1 -0.79,-0.93 l 0.01,-16.34 a 0.4,0.4 0 0 1 0.4,-0.4 h 66.89 a 0.46,0.45 -90 0 1 0.45,0.46 q -0.01,58.19 0.01,116.29 c 0.01,18.18 10.42,18.38 24.73,19.24 a 0.51,0.51 0 0 1 0.48,0.51 l 0.09,16.73 a 0.5,0.5 0 0 1 -0.4,0.49 l -67.37,12.52 a 0.46,0.46 0 0 1 -0.54,-0.45 v -24.08 a 0.44,0.43 70.3 0 0 -0.71,-0.34 c -17.58,14.8 -38.44,24.9 -61.79,25.14 -15.26,0.16 -31.69,-5.39 -40.7,-17.33 -12.21,-16.18 -12.01,-35.19 -11.63,-55.43 q 0.44,-23.68 -0.2,-56.68 c -0.27,-14.19 -14.81,-17.61 -26.28,-17.28 a 0.51,0.51 0 0 0 -0.49,0.52 c 1.38,39.53 -7.81,76 -37.13,103.91 -20.72,19.73 -43.38,30.19 -70.63,38.58 q -0.48,0.15 -0.05,0.41 c 14.83,9.11 33.74,18.06 50.96,20.01 20.03,2.26 36.85,-3.29 54.45,-13.05 a 0.54,0.54 0 0 1 0.72,0.19 l 6.35,10.22 a 0.98,0.97 -41.8 0 1 -0.07,1.12 l -41.33,51.57 -4.53,-0.02 c -49.81,-2.55 -93.78,-31.8 -125.6,-68.33 q -0.53,-0.6 -1.87,-0.73 C 141.65,262.19 95.81,203.2 92,145.81 86.81,67.44 139.82,4.87 219.06,0 Z m -73.84,144.75 c 6.59,47.68 37.71,112.22 96.42,107.41 66.67,-5.46 82.54,-79.3 74.26,-132.84 C 311.29,89.5 298.14,58.9 275.85,38.16 Q 249.88,14.01 214.28,18.44 c -60.39,7.51 -75.88,76.95 -69.06,126.31 z"
       id="path1"
       inkscape:label="Qu"
       style="fill:#929497;fill-opacity:1" />
    <path
       d="m 620.86,182.68 c 2.89,21.53 13.83,38.16 33.16,47.89 23.11,11.64 53.83,-3.01 71.69,-17.9 a 0.77,0.77 0 0 1 1.17,0.22 l 6.31,11.38 a 1.31,1.31 0 0 1 0,1.28 c -17.37,31.03 -48.71,47.8 -84.32,43.82 -43.89,-4.9 -68.99,-43.85 -66.63,-85.86 2.41,-42.88 32.68,-81.58 77.45,-83.15 46.97,-1.65 76.46,36.7 74.61,81.09 A 0.57,0.57 0 0 1 733.73,182 H 621.45 a 0.6,0.6 0 0 0 -0.59,0.68 z m 37.88,-62.62 c -23.45,-1.75 -35.58,22.6 -36.96,42.38 a 0.52,0.52 0 0 0 0.52,0.56 h 63.22 a 0.59,0.59 0 0 0 0.59,-0.59 c 0.02,-17.08 -6.7,-40.82 -27.37,-42.35 z"
       id="path5"
       inkscape:label="e"
       style="fill:#929497;fill-opacity:1" />
    <path
       d="m 730.78,64.61 a 0.62,0.62 0 0 1 0.6,-0.62 q 7.21,-0.14 14.32,0.27 c 9.93,0.58 11.96,12.28 2.91,15.4 a 0.44,0.44 0 0 0 -0.25,0.61 l 5.8,11.54 a 0.44,0.44 0 0 1 -0.38,0.64 l -6.44,0.19 a 0.77,0.76 77 0 1 -0.71,-0.45 C 745.69,90.16 741.91,79.57 739.1,80.7 a 2.92,1.98 82.6 0 0 -1.28,2.55 l 0.04,8.55 a 0.68,0.67 89.2 0 1 -0.66,0.69 l -5.77,0.12 a 0.68,0.68 0 0 1 -0.69,-0.68 z M 737.97,76 a 0.77,0.77 0 0 0 0.74,0.74 c 3.75,0.21 10.02,-0.21 8.15,-5.99 a 1.51,1.49 -83.3 0 0 -0.64,-0.82 q -3.45,-2.14 -7.61,-1.61 a 1.05,1.03 85.5 0 0 -0.9,1.07 z"
       id="path3"
       inkscape:label="R"
       style="fill:#929497;fill-opacity:1" />
    <path
       d="m 767.39,78.64 a 25.84,25.84 0 0 1 -25.84,25.84 25.84,25.84 0 0 1 -25.84,-25.84 25.84,25.84 0 0 1 25.84,-25.84 25.84,25.84 0 0 1 25.84,25.84 z m -4.95,0.01 A 20.85,20.85 0 0 0 741.59,57.8 20.85,20.85 0 0 0 720.74,78.65 20.85,20.85 0 0 0 741.59,99.5 20.85,20.85 0 0 0 762.44,78.65 Z"
       id="path2"
       inkscape:label="Circle"
       style="fill:#929497;fill-opacity:1" />
  </g>
</svg>

<?xml version="1.0" encoding="UTF-8" standalone="no"?>
<!DOCTYPE svg PUBLIC "-//W3C//DTD SVG 1.1//EN" "http://www.w3.org/Graphics/SVG/1.1/DTD/svg11.dtd">
<svg xmlns="http://www.w3.org/2000/svg" version="1.1" viewBox="0 0 768 337">
<g fill="#929497">
<path d="
  M 219.06 0.00
  L 233.06 0.00
  Q 237.82 0.38 242.55 0.73
  C 303.30 5.25 353.52 42.56 368.82 102.80
  A 1.27 1.26 -7.0 0 0 370.05 103.75
  L 441.22 103.75
  A 0.51 0.51 0.0 0 1 441.73 104.26
  Q 441.73 156.60 441.68 208.93
  Q 441.67 220.71 444.30 229.49
  C 450.76 251.13 475.75 248.16 491.05 240.01
  Q 501.01 234.70 509.00 227.91
  C 512.02 225.34 512.21 221.70 512.22 218.00
  Q 512.33 187.74 512.20 157.48
  Q 512.14 143.63 510.49 138.57
  Q 505.78 124.10 488.29 121.42
  A 0.94 0.94 0.0 0 1 487.50 120.49
  L 487.51 104.15
  A 0.40 0.40 0.0 0 1 487.91 103.75
  L 554.80 103.75
  A 0.46 0.45 -90.0 0 1 555.25 104.21
  Q 555.24 162.40 555.26 220.50
  C 555.27 238.68 565.68 238.88 579.99 239.74
  A 0.51 0.51 0.0 0 1 580.47 240.25
  L 580.56 256.98
  A 0.50 0.50 0.0 0 1 580.16 257.47
  L 512.79 269.99
  A 0.46 0.46 0.0 0 1 512.25 269.54
  L 512.25 245.46
  A 0.44 0.43 70.3 0 0 511.54 245.12
  C 493.96 259.92 473.10 270.02 449.75 270.26
  C 434.49 270.42 418.06 264.87 409.05 252.93
  C 396.84 236.75 397.04 217.74 397.42 197.50
  Q 397.86 173.82 397.22 140.82
  C 396.95 126.63 382.41 123.21 370.94 123.54
  A 0.51 0.51 0.0 0 0 370.45 124.06
  C 371.83 163.59 362.64 200.06 333.32 227.97
  C 312.60 247.70 289.94 258.16 262.69 266.55
  Q 262.21 266.70 262.64 266.96
  C 277.47 276.07 296.38 285.02 313.60 286.97
  C 333.63 289.23 350.45 283.68 368.05 273.92
  A 0.54 0.54 0.0 0 1 368.77 274.11
  L 375.12 284.33
  A 0.98 0.97 -41.8 0 1 375.05 285.45
  L 333.72 337.02
  L 329.19 337.00
  C 279.38 334.45 235.41 305.20 203.59 268.67
  Q 203.06 268.07 201.72 267.94
  C 141.65 262.19 95.81 203.20 92.00 145.81
  C 86.81 67.44 139.82 4.87 219.06 0.00
  Z
  M 145.22 144.75
  C 151.81 192.43 182.93 256.97 241.64 252.16
  C 308.31 246.70 324.18 172.86 315.90 119.32
  C 311.29 89.50 298.14 58.90 275.85 38.16
  Q 249.88 14.01 214.28 18.44
  C 153.89 25.95 138.40 95.39 145.22 144.75
  Z"
/>
<ellipse cx="0.00" cy="0.00" transform="translate(41.06,37.02) rotate(0.1)" rx="31.20" ry="29.79"/>
<path d="
  M 767.39 78.64
  A 25.84 25.84 0.0 0 1 741.55 104.48
  A 25.84 25.84 0.0 0 1 715.71 78.64
  A 25.84 25.84 0.0 0 1 741.55 52.80
  A 25.84 25.84 0.0 0 1 767.39 78.64
  Z
  M 762.44 78.65
  A 20.85 20.85 0.0 0 0 741.59 57.80
  A 20.85 20.85 0.0 0 0 720.74 78.65
  A 20.85 20.85 0.0 0 0 741.59 99.50
  A 20.85 20.85 0.0 0 0 762.44 78.65
  Z"
/>
<path d="
  M 730.78 64.61
  A 0.62 0.62 0.0 0 1 731.38 63.99
  Q 738.59 63.85 745.70 64.26
  C 755.63 64.84 757.66 76.54 748.61 79.66
  A 0.44 0.44 0.0 0 0 748.36 80.27
  L 754.16 91.81
  A 0.44 0.44 0.0 0 1 753.78 92.45
  L 747.34 92.64
  A 0.77 0.76 77.0 0 1 746.63 92.19
  C 745.69 90.16 741.91 79.57 739.10 80.70
  A 2.92 1.98 82.6 0 0 737.82 83.25
  L 737.86 91.80
  A 0.68 0.67 89.2 0 1 737.20 92.49
  L 731.43 92.61
  A 0.68 0.68 0.0 0 1 730.74 91.93
  L 730.78 64.61
  Z
  M 737.97 76.00
  A 0.77 0.77 0.0 0 0 738.71 76.74
  C 742.46 76.95 748.73 76.53 746.86 70.75
  A 1.51 1.49 -83.3 0 0 746.22 69.93
  Q 742.77 67.79 738.61 68.32
  A 1.05 1.03 85.5 0 0 737.71 69.39
  L 737.97 76.00
  Z"
/>
<path d="
  M 71.25 245.41
  C 76.21 248.21 81.87 247.75 87.41 248.36
  A 0.66 0.66 0.0 0 1 88.00 249.02
  L 88.00 264.48
  A 0.67 0.66 -0.0 0 1 87.33 265.14
  L 0.84 265.30
  A 0.34 0.33 -90.0 0 1 0.51 264.96
  L 0.50 248.80
  A 0.53 0.53 0.0 0 1 0.99 248.27
  C 12.54 247.46 20.82 243.24 20.95 230.44
  Q 21.11 214.78 20.97 159.25
  C 20.94 146.55 12.59 137.49 0.95 132.78
  A 0.74 0.72 11.7 0 1 0.50 132.11
  L 0.50 120.43
  A 0.76 0.75 -9.9 0 1 1.01 119.72
  L 56.51 100.30
  A 0.79 0.77 -38.6 0 1 57.19 100.37
  L 63.49 104.23
  A 1.07 1.06 -74.4 0 1 64.00 105.14
  Q 63.99 167.67 64.01 230.19
  C 64.02 235.40 65.95 242.42 71.25 245.41
  Z"
/>
<path d="
  M 620.86 182.68
  C 623.75 204.21 634.69 220.84 654.02 230.57
  C 677.13 242.21 707.85 227.56 725.71 212.67
  A 0.77 0.77 0.0 0 1 726.88 212.89
  L 733.19 224.27
  A 1.31 1.31 0.0 0 1 733.19 225.55
  C 715.82 256.58 684.48 273.35 648.87 269.37
  C 604.98 264.47 579.88 225.52 582.24 183.51
  C 584.65 140.63 614.92 101.93 659.69 100.36
  C 706.66 98.71 736.15 137.06 734.30 181.45
  A 0.57 0.57 0.0 0 1 733.73 182.00
  L 621.45 182.00
  A 0.60 0.60 0.0 0 0 620.86 182.68
  Z
  M 658.74 120.06
  C 635.29 118.31 623.16 142.66 621.78 162.44
  A 0.52 0.52 0.0 0 0 622.30 163.00
  L 685.52 163.00
  A 0.59 0.59 0.0 0 0 686.11 162.41
  C 686.13 145.33 679.41 121.59 658.74 120.06
  Z"
/>
</g>
</svg>
